X:9054
T:La ronde de la vieille
A:Normandie
O:Fance
M:6/8
Q:1/4=180
K:G
d2c|B3 ABc|B2G d2c|B3 ABc|B3G2A|
B2BB2B|d2Bd2B|G2FG2B|A3||
G2B|dddded|B2Bd2c|B3AGA|B3G2d|
dddded|B2Bd2c|B3AGA|G3||
W:
W:A Paris dans une ronde compose de jeunes gens
W:Il survint un bonne vieille, qui avait quatre vingt ans
W:
W:Refrain :
W:Ah! la viaille, la vieille qui croyait avoir qunze ans !
W:
W:Il survint un bonne vieille, qui avait quatre vingt ans
W:Retire toi ma bonne vieille, tu n'as pas assez d'argent.
W:
W:Retire toi ma bonne vieille, tu n'as pas assez d'argent.
W:Si tu savais c'qu'a la vieille, tu n'la r'buff'rais pas tant !
W:
W:Si tu savais c'qu'a la vieille, tu n'la r'buff'rais pas tant !
W:Dis-nous donc ce qu'a la vieille  -Elle a dix tonneaux
W:d'argent.
W:
W:Dis-nous donc ce qu'a la vieille  -Elle a dix tonneaux
W:d'argent.
W:Reviens! reviens bonne vieille marions-nous sans perdr' de
W:temps
W:
W:Reviens! reviens bonne vieille marions-nous sans perdr' de
W:temps
W:On arriv' chez le notaire : mariez-nous cett'belle enfant.
W:
W:On arriv' chez le notaire : mariez-nous cett'belle enfant.
W:Cette enfant, dit le notaire, elle a bien quatre-vingts ans !
W:
W:Cette enfant, dit le notaire, elle a bien quatre-vingts ans !
W:Mes amis, que chacun danse aprs moi bien doucement !
